client/public/img/game/winter/obstacles/frozen_crate_2.svg

<?xml version="1.0" encoding="UTF-8" standalone="no"?>
<!-- Created with Inkscape (http://www.inkscape.org/) -->

<svg
   width="185"
   height="185"
   viewBox="0 0 48.947917 48.947917"
   version="1.1"
   id="svg5"
   xmlns="http://www.w3.org/2000/svg"
   xmlns:svg="http://www.w3.org/2000/svg">
  <defs
     id="defs2">
    <mask
       id="a"
       width="60"
       height="60"
       x="-30"
       y="-30"
       maskUnits="userSpaceOnUse">
      <path
         fill="#ffffff"
         d="M -27,-27 H 27 V 27 H -27 Z"
         id="path907" />
      <path
         d="m 2,-23 v -4 h -4 v 4 m 1.5,17 v 4 h 1 v -4"
         id="path909" />
      <circle
         cy="-15"
         r="10.5"
         id="circle911"
         cx="0" />
      <g
         transform="rotate(120)"
         id="g917">
        <path
           d="m 2,-23 v -4 h -4 v 4 m 1.5,17 v 4 h 1 v -4"
           id="path913" />
        <circle
           cy="-15"
           r="10.5"
           id="circle915"
           cx="0" />
      </g>
      <g
         transform="rotate(-120)"
         id="g923">
        <path
           d="m 2,-23 v -4 h -4 v 4 m 1.5,17 v 4 h 1 v -4"
           id="path919" />
        <circle
           cy="-15"
           r="10.5"
           id="circle921"
           cx="0" />
      </g>
      <circle
         r="3"
         id="circle925"
         cx="0"
         cy="0" />
    </mask>
    <clipPath
       id="b">
      <circle
         cy="-15"
         r="9.5"
         id="circle900"
         cx="0" />
      <circle
         cy="-15"
         r="9.5"
         transform="rotate(120)"
         id="circle902"
         cx="0" />
      <circle
         cy="-15"
         r="9.5"
         transform="rotate(-120)"
         id="circle904"
         cx="0" />
    </clipPath>
  </defs>
  <g
     id="layer1">
    <g
       id="g865"
       transform="matrix(1.9616501,0,0,1.9616501,4.1209673e-4,4.1209673e-4)">
      <g
         id="g66566"
         transform="rotate(90,12.476,12.476)">
        <rect
           style="fill:#674b24;fill-opacity:1;stroke:none;stroke-width:0.798207;stroke-linecap:butt;stroke-linejoin:miter;stroke-miterlimit:4;stroke-dasharray:none;stroke-opacity:1"
           id="rect66532"
           width="16.9"
           height="16.9"
           x="4"
           y="4" />
        <path
           id="path66542"
           style="fill:#9e7437;stroke-width:0;stroke-linecap:round"
           d="M 0.49998583,0.49998698 V 24.452013 H 24.452014 V 0.49998698 Z M 4.5410828,4.541084 H 20.410916 V 20.410916 H 4.5410828 Z" />
        <rect
           style="fill:none;fill-opacity:1;stroke:none;stroke-width:1;stroke-linecap:butt;stroke-linejoin:bevel;stroke-miterlimit:4;stroke-dasharray:none;stroke-opacity:1"
           id="rect66544"
           width="16.9"
           height="16.9"
           x="4"
           y="4" />
        <rect
           style="fill:none;fill-opacity:1;stroke:#3f2e16;stroke-width:1;stroke-linecap:butt;stroke-linejoin:miter;stroke-miterlimit:4;stroke-dasharray:none;stroke-opacity:1"
           id="rect66554"
           width="15.870146"
           height="15.870145"
           x="4.540925"
           y="4.5409274" />
        <rect
           style="fill:none;fill-opacity:1;stroke:#3f2e16;stroke-width:1;stroke-linecap:round;stroke-linejoin:round;stroke-miterlimit:4;stroke-dasharray:none;stroke-opacity:1"
           id="rect66556"
           width="23.952419"
           height="23.952419"
           x="0.49978992"
           y="0.49978992" />
        <path
           style="fill:none;stroke:#3f2e16;stroke-width:1;stroke-linecap:butt;stroke-linejoin:miter;stroke-miterlimit:4;stroke-dasharray:none;stroke-opacity:1"
           d="m 20.411072,4.5409274 h 4"
           id="path66558" />
        <path
           style="fill:none;stroke:#3f2e16;stroke-width:1;stroke-linecap:butt;stroke-linejoin:miter;stroke-miterlimit:4;stroke-dasharray:none;stroke-opacity:1"
           d="m 20.411072,20.411072 h 4"
           id="path66560" />
        <path
           style="fill:none;stroke:#3f2e16;stroke-width:1;stroke-linecap:butt;stroke-linejoin:miter;stroke-miterlimit:4;stroke-dasharray:none;stroke-opacity:1"
           d="M 0.54092503,20.411072 H 4.540925"
           id="path66562" />
        <path
           style="fill:none;stroke:#3f2e16;stroke-width:1;stroke-linecap:butt;stroke-linejoin:miter;stroke-miterlimit:4;stroke-dasharray:none;stroke-opacity:1"
           d="M 0.54092503,4.5409274 H 4.540925"
           id="path66564" />
      </g>
      <g
         id="g958"
         transform="matrix(0.29352477,0,0,0.30386953,11.175947,11.922178)"
         style="fill:#332a00;fill-opacity:1;stroke:none;stroke-opacity:1">
        <g
           id="g2312"
           transform="matrix(0.95833334,0,0,0.95833334,0.90047659,-1.8798139)"
           style="fill:#332a00;fill-opacity:1;stroke:none;stroke-opacity:1">
          <g
             mask="url(#a)"
             id="g936"
             style="fill:#332a00;fill-opacity:1;stroke:none;stroke-opacity:1"
             transform="matrix(0.97854222,0,0,0.97853768,4,4.6909786)">
            <circle
               cy="-11"
               r="15"
               id="circle930"
               style="fill:#332a00;fill-opacity:1;stroke:none;stroke-opacity:1"
               cx="0" />
            <circle
               cy="-11"
               r="15"
               transform="rotate(120)"
               id="circle932"
               style="fill:#332a00;fill-opacity:1;stroke:none;stroke-opacity:1"
               cx="0" />
            <circle
               cy="-11"
               r="15"
               transform="rotate(-120)"
               id="circle934"
               style="fill:#332a00;fill-opacity:1;stroke:none;stroke-opacity:1"
               cx="0" />
          </g>
          <circle
             r="11.75"
             fill="none"
             stroke="#000"
             stroke-width="3.5"
             clip-path="url(#b)"
             id="circle938"
             style="fill:#332a00;fill-opacity:1;stroke:none;stroke-opacity:1"
             cx="0"
             cy="0"
             transform="matrix(0.97854222,0,0,0.97853768,4,4.6909786)" />
        </g>
      </g>
      <g
         id="g1">
        <path
           id="rect62437-8-3"
           style="opacity:0.7;fill:#b2d1f0;fill-opacity:1;stroke:#4a95dd;stroke-width:0.999985;stroke-linecap:round;stroke-linejoin:round;stroke-miterlimit:4;stroke-dasharray:none;stroke-opacity:1"
           d="m 0.54430793,20.158323 -0.0632113,4.291513 9.62534337,0.06614 -0.0321,-1.988684 -7.0734809,-1.824695 -2.5056122,-1.792771 z" />
        <path
           id="rect62437-8-3-7"
           style="opacity:0.7;fill:#b2d1f0;fill-opacity:1;stroke:#4a95dd;stroke-width:0.618154;stroke-linecap:round;stroke-linejoin:round;stroke-miterlimit:4;stroke-dasharray:none;stroke-opacity:1"
           d="M 21.502524,0.34766401 24.644405,0.31467161 24.692826,5.3386027 20.58848,0.32205791 Z" />
        <path
           id="rect62437-8-4"
           style="opacity:0.7;fill:#b2d1f0;fill-opacity:1;stroke:#4a95dd;stroke-width:0.999985;stroke-linecap:round;stroke-linejoin:round;stroke-miterlimit:4;stroke-dasharray:none;stroke-opacity:1"
           d="M 24.433258,24.449874 V 11.017927 c -2.109184,2.34236 -1.388263,4.61345 -2.82469,6.210107 -6.755064,7.508572 -9.244777,7.22184 -9.244777,7.22184 z" />
        <path
           id="rect62437-8-4-5"
           style="opacity:0.7;fill:#b2d1f0;fill-opacity:1;stroke:#4a95dd;stroke-width:0.999985;stroke-linecap:round;stroke-linejoin:round;stroke-miterlimit:4;stroke-dasharray:none;stroke-opacity:1"
           d="M 0.31112075,0.41912786 V 13.851075 C 1.0963067,13.924495 3.5679537,16.880189 4.0778667,16.463032 6.4686574,15.437783 11.809917,15.314706 12.98631,12.558878 14.468182,10.803644 11.636922,6.8948162 15.542765,6.7252107 25.613995,6.2878822 17.1366,3.9619464 17.775706,0.48656684 Z" />
      </g>
    </g>
  </g>
</svg>

<svg xmlns="http://www.w3.org/2000/svg" width="185" height="185" viewBox="0 0 48.948 48.948"><defs><clipPath id="b"><circle cy="-15" r="9.5"/><circle cy="-15" r="9.5" transform="rotate(120)"/><circle cy="-15" r="9.5" transform="rotate(-120)"/></clipPath><mask id="a" width="60" height="60" x="-30" y="-30" maskUnits="userSpaceOnUse"><path fill="#fff" d="M-27-27h54v54h-54Z"/><path d="M2-23v-4h-4v4M-.5-6v4h1v-4"/><circle cy="-15" r="10.5"/><g transform="rotate(120)"><path d="M2-23v-4h-4v4M-.5-6v4h1v-4"/><circle cy="-15" r="10.5"/></g><g transform="rotate(-120)"><path d="M2-23v-4h-4v4M-.5-6v4h1v-4"/><circle cy="-15" r="10.5"/></g><circle r="3"/></mask></defs><path d="M4 4h16.9v16.9H4z" style="fill:#674b24;fill-opacity:1;stroke:none;stroke-width:.798207;stroke-linecap:butt;stroke-linejoin:miter;stroke-miterlimit:4;stroke-dasharray:none;stroke-opacity:1" transform="matrix(0 1.96165 -1.96165 0 48.948 0)"/><path d="M.5.5v23.952h23.952V.5Zm4.041 4.041h15.87v15.87H4.54Z" style="fill:#9e7437;stroke-width:0;stroke-linecap:round" transform="matrix(0 1.96165 -1.96165 0 48.948 0)"/><path d="M4 4h16.9v16.9H4z" style="fill:none;fill-opacity:1;stroke:none;stroke-width:1;stroke-linecap:butt;stroke-linejoin:bevel;stroke-miterlimit:4;stroke-dasharray:none;stroke-opacity:1" transform="matrix(0 1.96165 -1.96165 0 48.948 0)"/><path d="M4.541 4.541h15.87v15.87H4.541z" style="fill:none;fill-opacity:1;stroke:#3f2e16;stroke-width:1;stroke-linecap:butt;stroke-linejoin:miter;stroke-miterlimit:4;stroke-dasharray:none;stroke-opacity:1" transform="matrix(0 1.96165 -1.96165 0 48.948 0)"/><path d="M.5.5h23.952v23.952H.5z" style="fill:none;fill-opacity:1;stroke:#3f2e16;stroke-width:1;stroke-linecap:round;stroke-linejoin:round;stroke-miterlimit:4;stroke-dasharray:none;stroke-opacity:1" transform="matrix(0 1.96165 -1.96165 0 48.948 0)"/><path d="M20.411 4.54h4M20.411 20.411h4M.54 20.411h4M.54 4.54h4" style="fill:none;stroke:#3f2e16;stroke-width:1;stroke-linecap:butt;stroke-linejoin:miter;stroke-miterlimit:4;stroke-dasharray:none;stroke-opacity:1" transform="matrix(0 1.96165 -1.96165 0 48.948 0)"/><g style="fill:#332a00;fill-opacity:1;stroke:none;stroke-opacity:1" transform="matrix(.53996 0 0 .55899 24.65 24.947)"><g mask="url(#a)" style="fill:#332a00;fill-opacity:1;stroke:none;stroke-opacity:1"><circle cy="-11" r="15" style="fill:#332a00;fill-opacity:1;stroke:none;stroke-opacity:1"/><circle cy="-11" r="15" style="fill:#332a00;fill-opacity:1;stroke:none;stroke-opacity:1" transform="rotate(120)"/><circle cy="-11" r="15" style="fill:#332a00;fill-opacity:1;stroke:none;stroke-opacity:1" transform="rotate(-120)"/></g><circle r="11.75" fill="none" clip-path="url(#b)" style="fill:#332a00;fill-opacity:1;stroke:none;stroke-opacity:1"/></g><path d="M.544 20.158.481 24.45l9.625.066-.032-1.989-7.073-1.824L.495 18.91z" style="opacity:.7;fill:#b2d1f0;fill-opacity:1;stroke:#4a95dd;stroke-width:.999985;stroke-linecap:round;stroke-linejoin:round;stroke-miterlimit:4;stroke-dasharray:none;stroke-opacity:1" transform="scale(1.96165)"/><path d="m21.503.348 3.141-.033.049 5.024L20.588.322Z" style="opacity:.7;fill:#b2d1f0;fill-opacity:1;stroke:#4a95dd;stroke-width:.618154;stroke-linecap:round;stroke-linejoin:round;stroke-miterlimit:4;stroke-dasharray:none;stroke-opacity:1" transform="scale(1.96165)"/><path d="M24.433 24.45V11.018c-2.109 2.342-1.388 4.613-2.824 6.21-6.755 7.509-9.245 7.222-9.245 7.222zM.311.42V13.85c.785.073 3.257 3.03 3.767 2.612 2.39-1.025 7.732-1.148 8.908-3.904 1.482-1.755-1.35-5.664 2.557-5.834 10.071-.437 1.594-2.763 2.233-6.238Z" style="opacity:.7;fill:#b2d1f0;fill-opacity:1;stroke:#4a95dd;stroke-width:.999985;stroke-linecap:round;stroke-linejoin:round;stroke-miterlimit:4;stroke-dasharray:none;stroke-opacity:1" transform="scale(1.96165)"/></svg>
